app/assets/images/icons/active/non-smoking.svg

<svg width="32" height="232" viewBox="0 0 32 232" xmlns="http://www.w3.org/2000/svg" xmlns:sketch="http://www.bohemiancoding.com/sketch/ns"><title>non-smoking</title><g sketch:type="MSPage" fill="none"><path d="M24.839 127.662c-2.363-2.361-5.5-3.662-8.839-3.662-3.338 0-6.477 1.301-8.838 3.662-2.362 2.361-3.662 5.498-3.662 8.838 0 3.338 1.3 6.477 3.662 8.838 2.361 2.361 5.5 3.662 8.838 3.662 3.339 0 6.476-1.301 8.839-3.662 2.36-2.361 3.661-5.5 3.661-8.838 0-3.34-1.301-6.477-3.661-8.838zm-1.683 8.641c.008.115.088.246.215.216.185-.049.332-.386.404-.53.268-.537.506-1.233.418-1.837-.047-.324-.195-.664-.443-.889l-.112-.09c-.312-.218-.718-.33-.937-.657-.248-.371-.371-.83-.379-1.27-.006-.425-.277-.113-.399.056-.412.556-.873 1.165-.949 1.864-.062.583.207 1.098.647 1.479.301.258.66.443.982.673.356.254.518.555.553.985zm2.555.197c0 2.135-.694 4.114-1.866 5.719l-13.562-13.565c1.603-1.172 3.58-1.867 5.717-1.867 5.355 0 9.711 4.358 9.711 9.713zm-19.422 0c0-2.173.716-4.179 1.925-5.8l13.586 13.585c-1.621 1.209-3.628 1.928-5.8 1.928-5.356 0-9.711-4.357-9.711-9.713zm1.734.639v2.237h8.699l-2.24-2.237h-6.459zm14.244 2.237v-2.237h-3.332l2.238 2.237h1.094zm.391-2.271h1.701v2.262h-1.701v-2.262zm0 0" id="non-smoking--white" fill="#206FAC" sketch:type="MSShapeGroup"/><path d="M24.839 87.662c-2.363-2.361-5.5-3.662-8.839-3.662-3.338 0-6.477 1.301-8.838 3.662-2.362 2.361-3.662 5.498-3.662 8.838 0 3.338 1.3 6.477 3.662 8.838 2.361 2.361 5.5 3.662 8.838 3.662 3.339 0 6.476-1.301 8.839-3.662 2.36-2.361 3.661-5.5 3.661-8.838 0-3.34-1.301-6.477-3.661-8.838zm-1.683 8.641c.008.115.088.246.215.216.185-.049.332-.386.404-.53.268-.537.506-1.233.418-1.837-.047-.324-.195-.664-.443-.889l-.112-.09c-.312-.218-.718-.33-.937-.657-.248-.371-.371-.83-.379-1.27-.006-.425-.277-.113-.399.056-.412.556-.873 1.165-.949 1.864-.062.583.207 1.098.647 1.479.301.258.66.443.982.673.356.254.518.555.553.985zm2.555.197c0 2.135-.694 4.114-1.866 5.719l-13.562-13.565c1.603-1.172 3.58-1.867 5.717-1.867 5.355 0 9.711 4.358 9.711 9.713zm-19.422 0c0-2.173.716-4.179 1.925-5.8l13.586 13.585c-1.621 1.209-3.628 1.928-5.8 1.928-5.356 0-9.711-4.357-9.711-9.713zm1.734.639v2.237h8.699l-2.24-2.237h-6.459zm14.244 2.237v-2.237h-3.332l2.238 2.237h1.094zm.391-2.271h1.701v2.262h-1.701v-2.262zm0 0" fill="#fff" sketch:type="MSShapeGroup"/><path d="M24.839 47.662c-2.363-2.361-5.5-3.662-8.839-3.662-3.338 0-6.477 1.301-8.838 3.662-2.362 2.361-3.662 5.498-3.662 8.838 0 3.338 1.3 6.477 3.662 8.838 2.361 2.361 5.5 3.662 8.838 3.662 3.339 0 6.476-1.301 8.839-3.662 2.36-2.361 3.661-5.5 3.661-8.838 0-3.34-1.301-6.477-3.661-8.838zm-1.683 8.641c.008.115.088.246.215.216.185-.049.332-.386.404-.53.268-.537.506-1.233.418-1.837-.047-.324-.195-.664-.443-.889l-.112-.09c-.312-.218-.718-.33-.937-.657-.248-.371-.371-.83-.379-1.27-.006-.425-.277-.113-.399.056-.412.556-.873 1.165-.949 1.864-.062.583.207 1.098.647 1.479.301.258.66.443.982.673.356.254.518.555.553.985zm2.555.197c0 2.135-.694 4.114-1.866 5.719l-13.562-13.565c1.603-1.172 3.58-1.867 5.717-1.867 5.355 0 9.711 4.358 9.711 9.713zm-19.422 0c0-2.173.716-4.179 1.925-5.8l13.586 13.585c-1.621 1.209-3.628 1.928-5.8 1.928-5.356 0-9.711-4.357-9.711-9.713zm1.734.639v2.237h8.699l-2.24-2.237h-6.459zm14.244 2.237v-2.237h-3.332l2.238 2.237h1.094zm.391-2.271h1.701v2.262h-1.701v-2.262zm0 0" fill="#67737B" sketch:type="MSShapeGroup"/><path d="M24.839 7.662c-2.363-2.361-5.5-3.662-8.839-3.662-3.338 0-6.477 1.301-8.838 3.662-2.362 2.361-3.662 5.498-3.662 8.838 0 3.338 1.3 6.477 3.662 8.838 2.361 2.361 5.5 3.662 8.838 3.662 3.339 0 6.476-1.301 8.839-3.662 2.36-2.361 3.661-5.5 3.661-8.838 0-3.34-1.301-6.477-3.661-8.838zm-1.683 8.641c.008.115.088.246.215.216.185-.049.332-.386.404-.53.268-.537.506-1.233.418-1.837-.047-.324-.195-.664-.443-.889l-.112-.09c-.312-.218-.718-.33-.937-.657-.248-.371-.371-.83-.379-1.27-.006-.425-.277-.113-.399.056-.412.556-.873 1.165-.949 1.864-.062.583.207 1.098.647 1.479.301.258.66.443.982.673.356.254.518.555.553.985zm2.555.197c0 2.135-.694 4.114-1.866 5.719l-13.562-13.565c1.603-1.172 3.58-1.867 5.717-1.867 5.355 0 9.711 4.358 9.711 9.713zm-19.422 0c0-2.173.716-4.179 1.925-5.8l13.586 13.585c-1.621 1.209-3.628 1.928-5.8 1.928-5.356 0-9.711-4.357-9.711-9.713zm1.734.639v2.237h8.699l-2.24-2.237h-6.459zm14.244 2.237v-2.237h-3.332l2.238 2.237h1.094zm.391-2.271h1.701v2.262h-1.701v-2.262zm0 0" fill="#3A434E" sketch:type="MSShapeGroup"/></g></svg>

<?xml version="1.0" encoding="UTF-8" standalone="no"?>
<svg width="32px" height="232px" viewBox="0 0 32 232" version="1.1" xmlns="http://www.w3.org/2000/svg" xmlns:xlink="http://www.w3.org/1999/xlink" xmlns:sketch="http://www.bohemiancoding.com/sketch/ns">
    <title>non-smoking</title>
    <description>Created with Sketch (http://www.bohemiancoding.com/sketch)</description>
    <defs></defs>
    <g id="Hotel-facilities" stroke="none" stroke-width="1" fill="none" fill-rule="evenodd" sketch:type="MSPage">
        <path d="M24.839,127.662 C22.476,125.301 19.339,124 16,124 C12.662,124 9.523,125.301 7.162,127.662 C4.8,130.023 3.5,133.16 3.5,136.5 C3.5,139.838 4.8,142.977 7.162,145.338 C9.523,147.699 12.662,149 16,149 C19.339,149 22.476,147.699 24.839,145.338 C27.199,142.977 28.5,139.838 28.5,136.5 C28.5,133.16 27.199,130.023 24.839,127.662 C24.839,127.662 27.199,130.023 24.839,127.662 Z M23.156,136.303 C23.164,136.418 23.244,136.549 23.371,136.519 C23.556,136.47 23.703,136.133 23.775,135.989 C24.043,135.452 24.281,134.756 24.193,134.152 C24.146,133.828 23.998,133.488 23.75,133.263 C23.714,133.232 23.675,133.199 23.638,133.173 C23.326,132.955 22.92,132.843 22.701,132.516 C22.453,132.145 22.33,131.686 22.322,131.246 C22.316,130.821 22.045,131.133 21.923,131.302 C21.511,131.858 21.05,132.467 20.974,133.166 C20.912,133.749 21.181,134.264 21.621,134.645 C21.922,134.903 22.281,135.088 22.603,135.318 C22.959,135.572 23.121,135.873 23.156,136.303 Z M25.711,136.5 C25.711,138.635 25.017,140.614 23.845,142.219 L10.283,128.654 C11.886,127.482 13.863,126.787 16,126.787 C21.355,126.787 25.711,131.145 25.711,136.5 C25.711,136.5 25.711,131.145 25.711,136.5 Z M6.289,136.5 C6.289,134.327 7.005,132.321 8.214,130.7 L21.8,144.285 C20.179,145.494 18.172,146.213 16,146.213 C10.644,146.213 6.289,141.856 6.289,136.5 Z M8.023,137.139 L8.023,139.376 L16.722,139.376 L14.482,137.139 L8.023,137.139 Z M22.267,139.376 L22.267,137.139 L18.935,137.139 L21.173,139.376 L22.267,139.376 Z M22.658,137.105 L24.359,137.105 L24.359,139.367 L22.658,139.367 L22.658,137.105 Z M22.658,137.105" id="non-smoking--white" fill="#206FAC" sketch:type="MSShapeGroup"></path>
        <path d="M24.839,87.662 C22.476,85.301 19.339,84 16,84 C12.662,84 9.523,85.301 7.162,87.662 C4.8,90.023 3.5,93.16 3.5,96.5 C3.5,99.838 4.8,102.977 7.162,105.338 C9.523,107.699 12.662,109 16,109 C19.339,109 22.476,107.699 24.839,105.338 C27.199,102.977 28.5,99.838 28.5,96.5 C28.5,93.16 27.199,90.023 24.839,87.662 C24.839,87.662 27.199,90.023 24.839,87.662 Z M23.156,96.303 C23.164,96.418 23.244,96.549 23.371,96.519 C23.556,96.47 23.703,96.133 23.775,95.989 C24.043,95.452 24.281,94.756 24.193,94.152 C24.146,93.828 23.998,93.488 23.75,93.263 C23.714,93.232 23.675,93.199 23.638,93.173 C23.326,92.955 22.92,92.843 22.701,92.516 C22.453,92.145 22.33,91.686 22.322,91.246 C22.316,90.821 22.045,91.133 21.923,91.302 C21.511,91.858 21.05,92.467 20.974,93.166 C20.912,93.749 21.181,94.264 21.621,94.645 C21.922,94.903 22.281,95.088 22.603,95.318 C22.959,95.572 23.121,95.873 23.156,96.303 Z M25.711,96.5 C25.711,98.635 25.017,100.614 23.845,102.219 L10.283,88.654 C11.886,87.482 13.863,86.787 16,86.787 C21.355,86.787 25.711,91.145 25.711,96.5 C25.711,96.5 25.711,91.145 25.711,96.5 Z M6.289,96.5 C6.289,94.327 7.005,92.321 8.214,90.7 L21.8,104.285 C20.179,105.494 18.172,106.213 16,106.213 C10.644,106.213 6.289,101.856 6.289,96.5 Z M8.023,97.139 L8.023,99.376 L16.722,99.376 L14.482,97.139 L8.023,97.139 Z M22.267,99.376 L22.267,97.139 L18.935,97.139 L21.173,99.376 L22.267,99.376 Z M22.658,97.105 L24.359,97.105 L24.359,99.367 L22.658,99.367 L22.658,97.105 Z M22.658,97.105" id="non-smoking--white" fill="#FFFFFF" sketch:type="MSShapeGroup"></path>
        <path d="M24.839,47.662 C22.476,45.301 19.339,44 16,44 C12.662,44 9.523,45.301 7.162,47.662 C4.8,50.023 3.5,53.16 3.5,56.5 C3.5,59.838 4.8,62.977 7.162,65.338 C9.523,67.699 12.662,69 16,69 C19.339,69 22.476,67.699 24.839,65.338 C27.199,62.977 28.5,59.838 28.5,56.5 C28.5,53.16 27.199,50.023 24.839,47.662 C24.839,47.662 27.199,50.023 24.839,47.662 Z M23.156,56.303 C23.164,56.418 23.244,56.549 23.371,56.519 C23.556,56.47 23.703,56.133 23.775,55.989 C24.043,55.452 24.281,54.756 24.193,54.152 C24.146,53.828 23.998,53.488 23.75,53.263 C23.714,53.232 23.675,53.199 23.638,53.173 C23.326,52.955 22.92,52.843 22.701,52.516 C22.453,52.145 22.33,51.686 22.322,51.246 C22.316,50.821 22.045,51.133 21.923,51.302 C21.511,51.858 21.05,52.467 20.974,53.166 C20.912,53.749 21.181,54.264 21.621,54.645 C21.922,54.903 22.281,55.088 22.603,55.318 C22.959,55.572 23.121,55.873 23.156,56.303 Z M25.711,56.5 C25.711,58.635 25.017,60.614 23.845,62.219 L10.283,48.654 C11.886,47.482 13.863,46.787 16,46.787 C21.355,46.787 25.711,51.145 25.711,56.5 C25.711,56.5 25.711,51.145 25.711,56.5 Z M6.289,56.5 C6.289,54.327 7.005,52.321 8.214,50.7 L21.8,64.285 C20.179,65.494 18.172,66.213 16,66.213 C10.644,66.213 6.289,61.856 6.289,56.5 Z M8.023,57.139 L8.023,59.376 L16.722,59.376 L14.482,57.139 L8.023,57.139 Z M22.267,59.376 L22.267,57.139 L18.935,57.139 L21.173,59.376 L22.267,59.376 Z M22.658,57.105 L24.359,57.105 L24.359,59.367 L22.658,59.367 L22.658,57.105 Z M22.658,57.105" id="non-smoking--light-grey" fill="#67737B" sketch:type="MSShapeGroup"></path>
        <path d="M24.839,7.662 C22.476,5.301 19.339,4 16,4 C12.662,4 9.523,5.301 7.162,7.662 C4.8,10.023 3.5,13.16 3.5,16.5 C3.5,19.838 4.8,22.977 7.162,25.338 C9.523,27.699 12.662,29 16,29 C19.339,29 22.476,27.699 24.839,25.338 C27.199,22.977 28.5,19.838 28.5,16.5 C28.5,13.16 27.199,10.023 24.839,7.662 C24.839,7.662 27.199,10.023 24.839,7.662 Z M23.156,16.303 C23.164,16.418 23.244,16.549 23.371,16.519 C23.556,16.47 23.703,16.133 23.775,15.989 C24.043,15.452 24.281,14.756 24.193,14.152 C24.146,13.828 23.998,13.488 23.75,13.263 C23.714,13.232 23.675,13.199 23.638,13.173 C23.326,12.955 22.92,12.843 22.701,12.516 C22.453,12.145 22.33,11.686 22.322,11.246 C22.316,10.821 22.045,11.133 21.923,11.302 C21.511,11.858 21.05,12.467 20.974,13.166 C20.912,13.749 21.181,14.264 21.621,14.645 C21.922,14.903 22.281,15.088 22.603,15.318 C22.959,15.572 23.121,15.873 23.156,16.303 Z M25.711,16.5 C25.711,18.635 25.017,20.614 23.845,22.219 L10.283,8.654 C11.886,7.482 13.863,6.787 16,6.787 C21.355,6.787 25.711,11.145 25.711,16.5 C25.711,16.5 25.711,11.145 25.711,16.5 Z M6.289,16.5 C6.289,14.327 7.005,12.321 8.214,10.7 L21.8,24.285 C20.179,25.494 18.172,26.213 16,26.213 C10.644,26.213 6.289,21.856 6.289,16.5 Z M8.023,17.139 L8.023,19.376 L16.722,19.376 L14.482,17.139 L8.023,17.139 Z M22.267,19.376 L22.267,17.139 L18.935,17.139 L21.173,19.376 L22.267,19.376 Z M22.658,17.105 L24.359,17.105 L24.359,19.367 L22.658,19.367 L22.658,17.105 Z M22.658,17.105" id="non-smoking--dark-grey" fill="#3A434E" sketch:type="MSShapeGroup"></path>
    </g>
</svg>
